public/assets/images/icons/blue/visibility-invisible/folder-edit-empty2.svg

<svg width="16" height="16" xmlns="http://www.w3.org/2000/svg" viewBox="0 0 16 16" shape-rendering="geometricPrecision" fill="#24437c"><defs><mask id="a"><rect fill="#fff" width="100%" height="100%"/><path d="M12.997.858a4.809 4.809 0 0 0-4.253 2.563 4.81 4.81 0 0 0 8.506 0A4.812 4.812 0 0 0 12.997.858z" fill="#000"/></mask></defs><path d="M12.997 1.611a3.394 3.394 0 0 0-3.003 1.81 3.397 3.397 0 0 0 6.006 0 3.398 3.398 0 0 0-3.003-1.81zm-.001 3.396a1.587 1.587 0 1 1 0-3.174 1.587 1.587 0 0 1 0 3.174z" fill="#cb1800"/><path mask="url(#a)" d="M7.394 4.755l-.816-1.923h-3.78l-.816 1.923H.861V14h14.278V4.755H7.394zm-1.226 8.237l-.081-.852.736.293-.655.559zm1.272-1.08l-1.443-.579L7.556 7.44 9 8.019l-1.56 3.893zm1.952-4.87l-.233.58-1.444-.58.232-.578a.778.778 0 0 1 1.445.578z"/></svg>

<?xml version="1.0"?><!DOCTYPE svg PUBLIC "-//W3C//DTD SVG 1.1//EN" "http://www.w3.org/Graphics/SVG/1.1/DTD/svg11.dtd"><svg width="16px" height="16px" xmlns="http://www.w3.org/2000/svg" viewBox="0 0 16 16" shape-rendering="geometricPrecision" fill="#24437c"><defs><mask id="visibility-invisible-path"><rect fill="#fff" width="100%" height="100%"/><path d="M12.997,0.858c-1.845,0-3.446,1.039-4.253,2.563c0.808,1.523,2.408,2.562,4.253,2.562 c1.844,0,3.444-1.039,4.253-2.562C16.441,1.897,14.841,0.858,12.997,0.858z" fill="#000"/></mask></defs><g id="visibility-invisible" display="inline" fill="#cb1800"><g><g><path d="M12.997,1.611c-1.303,0-2.433,0.733-3.003,1.81c0.57,1.075,1.7,1.809,3.003,1.809c1.302,0,2.432-0.733,3.003-1.809 C15.429,2.345,14.299,1.611,12.997,1.611z M12.996,5.007c-0.876,0-1.587-0.71-1.587-1.586c0-0.877,0.711-1.588,1.587-1.588 c0.877,0,1.588,0.711,1.588,1.588C14.584,4.297,13.873,5.007,12.996,5.007z"/></g></g></g><path mask="url(#visibility-invisible-path)" d="M7.394,4.755L6.578,2.832H2.798L1.982,4.755H0.861V14h14.278V4.755H7.394z M6.168,12.992 L6.087,12.14l0.736,0.293L6.168,12.992z M7.44,11.912l-1.443-0.579L7.556,7.44L9,8.019L7.44,11.912z M9.392,7.042l-0.233,0.58 l-1.444-0.58l0.232-0.578c0.163-0.396,0.612-0.588,1.01-0.428C9.354,6.193,9.548,6.644,9.392,7.042L9.392,7.042z"/></svg>
